X:64
T:North River Gathering
R:strathspey
C:Paul S. Cranford
O:Cape Breton Island
S:http://www.cranfordpub.com
D:currently unrecorded
B:currently unpublished in book form
Z:psc
H:                                                        copyrights Cranford Publications, SOCAN
L:1/8
Q:288
M:C
K:G
A|G>gd>g e<cd>c|B<Gc>B A<EF>A|G>gd>g e<cd>g|e/d/c/B/ A>d B<GG:|
||f|g>dc>g d<gb>a|g/f/e/d/ B>d c<AA>f|g>dc>g d<gB>g|e/d/c/B/ A>d B<GGf|
g>dc>g d<gb>a|g/f/e/d/ B>d c<AA>c|B<Gc>A d<gB>g|e/d/c/B/ A>d B<GG|]
